X:1
T: Loch Ba
C:Paul Machlis
R:Strathspey
Q: 128
K:Dm
M:4/4
L:1/16
|:d3e|f4 f3e dA3 G3c|AF3 E3F D4 F3G|A4 A3B c4 ((3c2d2e2) |f3e dg3 e4 d3e|
f4 f3e dA3 G3c|AF3 E3F D4 ((3D2E2F2) |G4 ((3G2A2B2) c4 ((3c2d2e2) |f3e de3 d4 g3f|
ec3 c3B A3B cA3|d3A FE3 D4 g3f|ec3 c3B A3B cA3|((3B2c2d2) ((3c2d2e2) ((3d2e2f2) ((3e2f2g2) |
a3g fe3 dA3 G3c|AF3 E3F D4 ((3A2B2c2) |d4 ((3G2A2B2) c4 ((3F2G2A2) |G3F EF3 D4:|
